icons/svg/seamark/harbour_ferry_bak.svg

<?xml version="1.0" encoding="UTF-8" standalone="no"?>
<svg
   xmlns:dc="http://purl.org/dc/elements/1.1/"
   xmlns:cc="http://creativecommons.org/ns#"
   xmlns:rdf="http://www.w3.org/1999/02/22-rdf-syntax-ns#"
   xmlns:svg="http://www.w3.org/2000/svg"
   xmlns="http://www.w3.org/2000/svg"
   xmlns:sodipodi="http://sodipodi.sourceforge.net/DTD/sodipodi-0.dtd"
   xmlns:inkscape="http://www.inkscape.org/namespaces/inkscape"
   width="580"
   height="580"
   id="svg2"
   version="1.1"
   inkscape:version="0.48.4 r9939"
   sodipodi:docname="harbour_ferry.svg">
  <defs
     id="defs13">
    <inkscape:path-effect
       effect="gears"
       id="path-effect3774"
       is_visible="true"
       teeth="6"
       phi="-1.2" />
    <inkscape:path-effect
       effect="bend_path"
       id="path-effect3772"
       is_visible="false"
       bendpath="m 95.790098,316.51174 c 144.429032,-206.42506 223.313032,-11.7428 339.548092,0"
       prop_scale="1.19"
       scale_y_rel="false"
       vertical="false"
       bendpath-nodetypes="cc" />
  </defs>
  <sodipodi:namedview
     pagecolor="#ffffff"
     bordercolor="#666666"
     borderopacity="1"
     objecttolerance="10"
     gridtolerance="10"
     guidetolerance="10"
     inkscape:pageopacity="0"
     inkscape:pageshadow="2"
     inkscape:window-width="1920"
     inkscape:window-height="1004"
     id="namedview11"
     showgrid="false"
     inkscape:zoom="0.40689654"
     inkscape:cx="115.17423"
     inkscape:cy="392.05741"
     inkscape:window-x="1680"
     inkscape:window-y="0"
     inkscape:window-maximized="1"
     inkscape:current-layer="svg2" />
  <metadata
     id="metadata2975">image/svg+xmlen<rdf:RDF>
  <cc:Work
     rdf:about="">
    <dc:format>image/svg+xml</dc:format>
    <dc:type
       rdf:resource="http://purl.org/dc/dcmitype/StillImage" />
    <dc:title></dc:title>
  </cc:Work>
</rdf:RDF>
</metadata>
  <path
     sodipodi:type="inkscape:offset"
     inkscape:radius="34.40678"
     inkscape:original="M 117.1875 130.84375 A 15.104157 15.104157 0 0 0 103.5 145.90625 L 103.5 221.4375 L 103.5 251.625 L 103.5 281.84375 L 103.5 387.5625 C 103.5 427.83623 142.10477 463.09375 194.125 463.09375 L 405.53125 463.09375 C 457.5514 463.09375 496.15633 427.83624 496.15625 387.5625 L 496.15625 357.375 A 15.104157 15.104157 0 0 0 481.0625 342.25 L 465.96875 342.25 A 15.104157 15.104157 0 0 0 450.84375 357.375 L 450.84375 387.5625 C 450.84375 390.07962 449.13396 394.36591 445.84375 397.65625 C 442.55337 400.9466 438.26687 402.65625 435.75 402.65625 L 377.15625 402.65625 A 15.104157 15.104157 0 0 0 392.25 387.5625 L 392.25 372.4375 C 401.31156 372.4375 407.375 366.43658 407.375 357.375 L 407.375 312.0625 C 407.375 303.09845 401.43063 297.09706 392.53125 296.96875 A 15.104157 15.104157 0 0 0 391.3125 291.75 L 368.65625 231.34375 A 15.104157 15.104157 0 0 0 354.5 221.4375 L 248.78125 221.4375 A 15.104157 15.104157 0 0 0 247.375 221.4375 A 15.104157 15.104157 0 0 0 234.625 231.34375 L 211.96875 291.75 A 15.104157 15.104157 0 0 0 210.75 296.9375 C 201.83529 297.0538 195.90625 303.08922 195.90625 312.0625 L 195.90625 357.375 C 195.90625 366.43658 201.96965 372.4375 211.03125 372.4375 L 211.03125 387.5625 A 15.104157 15.104157 0 0 0 226.125 402.65625 L 179 402.65625 C 176.48291 402.65625 172.22784 400.9466 168.9375 397.65625 C 165.64717 394.36591 163.90625 390.0796 163.90625 387.5625 L 163.90625 287.0625 L 206.375 230.40625 C 208.58241 227.41378 209.5707 223.5702 209.21875 219.875 L 209.21875 145.90625 A 15.104157 15.104157 0 0 0 194.125 130.84375 L 118.59375 130.84375 A 15.104157 15.104157 0 0 0 117.1875 130.84375 z M 373.25 148.21875 C 361.71783 148.21875 351.875 156.0491 351.875 170.96875 C 351.875 180.70876 356.40133 190.57541 362.375 196.6875 C 364.70617 202.7996 360.49913 205.08571 359.625 205.40625 C 359.07307 205.60619 358.54305 205.81672 358 206.03125 C 360.73231 206.46048 363.79985 206.95315 363.75 206.9375 C 363.6703 206.9122 372.25646 211.14194 372.1875 211.09375 C 372.1186 211.04555 379.02026 217.62914 378.96875 217.5625 C 378.91805 217.4967 383.3855 225.56184 383.46875 225.6875 L 383.5 225.6875 L 383.53125 225.8125 L 392.9375 250.90625 C 394.30921 253.1705 395.37852 255.8271 395.96875 258.875 L 405.3125 283.8125 C 408.72368 285.29865 411.91487 287.31075 414.5625 290 C 420.31608 295.84399 423.21875 304.03802 423.21875 312.03125 L 423.21875 357.34375 C 423.21875 365.42023 420.24439 373.7074 414.375 379.5625 C 412.53236 381.40052 410.3927 382.83236 408.15625 384.09375 C 412.87243 395.61601 428.53874 393.61229 430.5625 379.78125 C 430.40489 362.9063 433.8125 319.65625 433.8125 319.65625 L 435.75 358.4375 C 436.9617 334.23697 447.37447 329.8886 456.5625 328.5 L 456.75 317.1875 C 457.33259 323.68508 466.57116 321.97815 466.59375 315.5 C 466.60175 313.4092 466.59375 249.56472 466.59375 247.4375 C 466.59375 239.35117 457.1612 231.44615 444.5 227.25 C 443.92431 227.0606 440.25831 225.40405 442.53125 218.46875 L 442.5 218.46875 C 448.44449 212.35664 452.96875 202.53278 452.96875 192.84375 C 452.96875 177.92412 443.08745 170.09375 431.5625 170.09375 C 420.03765 170.09375 410.15625 177.92412 410.15625 192.84375 C 410.15625 202.58377 414.68267 212.4504 420.65625 218.5625 C 422.98028 224.6746 418.80439 226.92946 417.9375 227.25 C 414.92154 228.33547 412.01922 229.67011 409.375 231.15625 L 409.375 225.5625 C 409.375 217.47617 398.85608 209.6024 386.1875 205.40625 C 385.61197 205.21684 381.94591 203.56031 384.21875 196.625 L 384.1875 196.625 C 390.13208 190.51292 394.6875 180.65777 394.6875 170.96875 C 394.6875 156.0491 384.77469 148.21875 373.25 148.21875 z M 133.6875 161.03125 L 179 161.03125 L 179 206.34375 L 133.6875 206.34375 L 133.6875 161.03125 z M 314.96875 170.09375 C 303.44391 170.09375 293.5 177.92411 293.5 192.84375 C 293.5 197.14855 294.42043 201.43994 295.9375 205.46875 L 333.96875 205.46875 C 335.47124 201.44439 336.34375 197.15182 336.34375 192.84375 C 336.34375 177.92411 326.49359 170.09375 314.96875 170.09375 z M 259.15625 251.625 L 344.125 251.625 L 361.03125 296.9375 L 242.21875 296.9375 L 259.15625 251.625 z M 241.21875 327.15625 C 250.28034 327.15625 256.34375 333.18841 256.34375 342.25 C 256.34375 351.31158 250.28034 357.375 241.21875 357.375 C 232.15715 357.375 226.125 351.31158 226.125 342.25 C 226.125 333.18841 232.15715 327.15625 241.21875 327.15625 z M 362.0625 327.15625 C 371.12408 327.15625 377.15625 333.18841 377.15625 342.25 C 377.15625 351.31158 371.12408 357.375 362.0625 357.375 C 353.00085 357.375 346.9375 351.31158 346.9375 342.25 C 346.9375 333.18841 353.00085 327.15625 362.0625 327.15625 z M 256.34375 372.4375 L 346.9375 372.4375 L 346.9375 387.5625 A 15.104157 15.104157 0 0 0 362.0625 402.65625 L 241.21875 402.65625 A 15.104157 15.104157 0 0 0 256.34375 387.5625 L 256.34375 372.4375 z "
     style="font-size:medium;font-style:normal;font-variant:normal;font-weight:normal;font-stretch:normal;text-indent:0;text-align:start;text-decoration:none;line-height:normal;letter-spacing:normal;word-spacing:normal;text-transform:none;direction:ltr;block-progression:tb;writing-mode:lr-tb;text-anchor:start;baseline-shift:baseline;opacity:0.28800001;color:#000000;fill:#c26cc2;fill-opacity:1;fill-rule:nonzero;stroke:none;stroke-width:1;marker:none;visibility:visible;display:inline;overflow:visible;enable-background:accumulate;font-family:Sans;-inkscape-font-specification:Sans"
     id="path4591"
     d="m 118.59375,96.4375 0,0.03125 c -1.50465,0.0056 -3.39093,0.01822 -3,0 a 34.410221,34.410221 0 0 0 -1.625,0.125 c 2.36779,-0.223061 -19.627286,6.06341 -17.5,5 2.127286,-1.06341 -16.099435,12.76011 -14.5,11 1.599435,-1.76011 -10.418037,17.68781 -9.5625,15.46875 0.852675,-2.21164 -3.280937,20.04879 -3.3125,17.84375 -1.06e-4,-0.007 1.3e-5,0.0705 0,0.0625 l 0,75.46875 0,30.1875 0,30.21875 0,105.71875 c 0,62.26103 57.46453,109.9375 125.03125,109.9375 l 211.40625,0 c 67.56666,0 125.03137,-47.67634 125.03125,-109.9375 l 0,-30.125 c -10e-6,0.008 10e-5,-0.0699 0,-0.0625 -0.0328,2.3558 -4.71151,-21.2355 -3.75,-18.90625 0.96454,2.33657 -12.50434,-17.88304 -10.71875,-16.09375 1.67613,1.6796 -14.85107,-9.411 -15.09375,-10.0625 0.0144,-9.57964 0,-62.93319 0,-64.875 0,-16.26699 -8.10459,-27.826 -16.125,-35.5 1.59994,-5.92742 2.5,-12.25454 2.5,-19.09375 0,-15.05571 -5.81809,-30.87768 -16.75,-41.5625 -10.93191,-10.68482 -25.50772,-15.59375 -39.0625,-15.59375 -4.18325,0 -8.4453,0.63482 -12.6875,1.59375 -1.9315,-2.8457 -4.10993,-5.51391 -6.5625,-7.90625 -10.94018,-10.67149 -25.50769,-15.5625 -39.0625,-15.5625 -13.55349,0 -28.16923,4.89232 -39.09375,15.59375 -2.43435,2.38464 -4.55325,5.07862 -6.46875,7.90625 -4.25644,-0.96645 -8.52325,-1.625 -12.71875,-1.625 -13.55479,0 -28.11405,4.87289 -39.0625,15.53125 -9.54936,9.29634 -15.20267,22.55479 -16.5,35.8125 l -10.625,0 0,0.0312 c -1.50465,0.006 -3.39093,0.0182 -3,0 a 34.410221,34.410221 0 0 0 -1.71875,0.125 c 0.49361,-0.0479 0.22198,0.19228 -0.4375,0.5625 l 0,-41.84375 a 34.410221,34.410221 0 0 0 0,-0.0937 c 0.007,2.52116 -4.78173,-21.23367 -3.8125,-18.90625 0.96923,2.32742 -12.50333,-17.78089 -10.71875,-16 1.78458,1.78089 -18.36068,-11.683151 -16.03125,-10.71875 2.32943,0.9644 -21.42742,-3.751728 -18.90625,-3.75 a 34.410221,34.410221 0 0 0 -0.0312,0 l -75.53125,0 z m 100.125,100.84375 c 0.005,0.0448 -0.0524,0.20803 -0.0937,0.3125 -0.31672,0.0409 -0.43468,-0.002 -0.15625,-0.21875 0.17907,-0.13913 0.24093,-0.17519 0.25,-0.0937 z m 22.5,125.6875 c 3.14344,0 9.11047,1.62901 13.40625,5.9375 4.29578,4.30849 5.90625,10.23986 5.90625,13.34375 0,3.10388 -1.62116,9.05866 -5.9375,13.375 -4.31634,4.31634 -10.27112,5.9375 -13.375,5.9375 -3.10389,0 -9.03526,-1.61047 -13.34375,-5.90625 -4.30849,-4.29578 -5.9375,-10.26281 -5.9375,-13.40625 0,-3.14346 1.61825,-9.087 5.90625,-13.375 4.288,-4.288 10.23154,-5.90625 13.375,-5.90625 z m 120.84375,0 c 3.14338,0 9.08697,1.61821 13.375,5.90625 4.28803,4.28804 5.90625,10.23162 5.90625,13.375 0,3.14337 -1.62898,9.11043 -5.9375,13.40625 -4.30852,4.29582 -10.23994,5.90625 -13.34375,5.90625 -3.10391,0 -9.05867,-1.62117 -13.375,-5.9375 -4.31633,-4.31633 -5.9375,-10.2711 -5.9375,-13.375 0,-3.10392 1.61048,-9.03528 5.90625,-13.34375 4.29577,-4.30847 10.26278,-5.9375 13.40625,-5.9375 z" />
  <path
     style="font-size:medium;font-style:normal;font-variant:normal;font-weight:normal;font-stretch:normal;text-indent:0;text-align:start;text-decoration:none;line-height:normal;letter-spacing:normal;word-spacing:normal;text-transform:none;direction:ltr;block-progression:tb;writing-mode:lr-tb;text-anchor:start;baseline-shift:baseline;color:#000000;fill:#930093;fill-opacity:1;fill-rule:nonzero;stroke:none;stroke-width:1;marker:none;visibility:visible;display:inline;overflow:visible;enable-background:accumulate;font-family:Sans;-inkscape-font-specification:Sans"
     d="m 117.18826,130.83002 a 15.104157,15.104157 0 0 0 -13.68292,15.08496 l 0,75.52868 0,30.19589 0,30.1959 0,105.72457 c 0,40.27373 38.5934,75.52868 90.61363,75.52868 l 211.42322,0 c 52.02015,0 90.61365,-35.25494 90.61357,-75.52868 l 0,-30.19589 A 15.104157,15.104157 0 0 0 481.07083,342.2532 l -15.11093,0 a 15.104157,15.104157 0 0 0 -15.11093,15.11093 l 0,30.19589 c 0,2.51712 -1.72076,6.80957 -5.01097,10.09991 -3.29038,3.29035 -7.55708,5.01102 -10.07395,5.01102 l -58.60033,0 a 15.104157,15.104157 0 0 0 15.08502,-15.11093 l 0,-15.11093 c 9.06156,0 15.11083,-6.02338 15.11083,-15.08496 l 0,-45.30683 c 0,-8.96405 -5.92589,-14.95665 -14.82527,-15.08496 a 15.104157,15.104157 0 0 0 -1.22026,-5.21873 L 368.6476,231.33586 a 15.104157,15.104157 0 0 0 -14.15031,-9.8922 l -105.72453,0 a 15.104157,15.104157 0 0 0 -1.40204,0 15.104157,15.104157 0 0 0 -12.74822,9.8922 l -22.6664,60.41775 a 15.104157,15.104157 0 0 0 -1.19434,5.19277 c -8.91471,0.1163 -14.85128,6.13764 -14.85128,15.11092 l 0,45.30683 c 0,9.06158 6.04933,15.08496 15.11093,15.08496 l 0,15.11093 a 15.104157,15.104157 0 0 0 15.11093,15.11093 l -47.1243,0 c -2.51709,0 -6.78361,-1.72067 -10.07395,-5.01102 -3.29033,-3.29034 -5.03698,-7.58281 -5.03698,-10.09991 l 0,-100.50585 42.47677,-56.653 c 2.20741,-2.99247 3.18201,-6.82014 2.83006,-10.51534 l 0,-73.97085 a 15.104157,15.104157 0 0 0 -15.08497,-15.08496 l -75.52867,0 a 15.104157,15.104157 0 0 0 -1.40204,0 z m 256.05498,17.39574 c -11.53217,0 -21.36825,7.82464 -21.36825,22.74429 0,9.74001 4.51571,19.61802 10.48938,25.73011 2.33117,6.1121 -1.85203,8.37734 -2.72616,8.69788 -0.55193,0.19994 -1.09272,0.4086 -1.63577,0.62313 2.73231,0.42923 5.78781,0.92438 5.73796,0.90873 -0.0797,-0.0253 8.50724,4.2024 8.43828,4.15421 -0.0689,-0.0482 6.85402,6.55758 6.80251,6.49094 -0.0507,-0.0658 4.40845,8.00101 4.4917,8.12667 l 0.026,0 0.026,0.10386 9.42482,25.10699 c 1.37171,2.26425 2.42157,4.92298 3.0118,7.97088 l 9.34697,24.92525 c 3.41118,1.48615 6.59547,3.49013 9.2431,6.17938 5.75358,5.84399 8.67192,14.05003 8.67192,22.04326 l 0,45.30682 c 0,8.07648 -2.98423,16.36991 -8.85362,22.22501 -1.84264,1.83802 -3.96893,3.28227 -6.20538,4.54366 4.71618,11.52226 20.38303,9.52105 22.40679,-4.30999 -0.15761,-16.87495 3.24543,-60.13214 3.24543,-60.13214 l 1.94733,38.76394 c 1.2117,-24.20053 11.60893,-28.54765 20.79696,-29.93625 l 0.18178,-11.32022 c 0.58259,6.49758 9.84365,4.79051 9.86624,-1.68764 0.008,-2.0908 0,-65.92389 0,-68.05111 0,-8.08633 -9.45995,-15.97772 -22.12115,-20.17387 -0.57569,-0.1894 -4.22026,-1.84046 -1.94732,-8.77576 l -0.026,0 c 5.94449,-6.11211 10.46336,-15.9632 10.46336,-25.65223 0,-14.91963 -9.89523,-22.74428 -21.42018,-22.74428 -11.52485,0 -21.39416,7.82465 -21.39416,22.74428 0,9.74002 4.51579,19.61802 10.48937,25.73012 2.32403,6.1121 -1.85926,8.37733 -2.72615,8.69787 -3.01596,1.08547 -5.89782,2.40843 -8.54204,3.89457 l 0,-5.58222 c 0,-8.08633 -10.51713,-15.97771 -23.18571,-20.17386 -0.57553,-0.18941 -4.2461,-1.84046 -1.97326,-8.77577 l -0.026,0 c 5.94458,-6.11208 10.48937,-15.9632 10.48937,-25.65222 0,-14.91965 -9.92132,-22.74429 -21.44601,-22.74429 z m -239.54202,12.80015 45.30682,0 0,45.30682 -45.30682,0 0,-45.30682 z m 181.25325,9.06137 c -11.52484,0 -21.44609,7.82464 -21.44609,22.74428 0,4.3048 0.89756,8.61556 2.41463,12.64437 l 38.03696,0 c 1.50249,-4.02436 2.38867,-8.3363 2.38867,-12.64437 0,-14.91964 -9.86933,-22.74428 -21.39417,-22.74428 z m -55.79619,81.55227 84.95353,0 16.92836,45.30683 -118.81029,0 16.9284,-45.30683 z m -17.94098,75.50272 c 9.06159,0 15.11093,6.04934 15.11093,15.11093 0,9.06158 -6.04934,15.11093 -15.11093,15.11093 -9.0616,0 -15.08496,-6.04935 -15.08496,-15.11093 0,-9.06159 6.02336,-15.11093 15.08496,-15.11093 z m 120.83549,0 c 9.06158,0 15.11093,6.04934 15.11093,15.11093 0,9.06158 -6.04935,15.11093 -15.11093,15.11093 -9.06165,0 -15.11093,-6.04935 -15.11093,-15.11093 0,-9.06159 6.04928,-15.11093 15.11093,-15.11093 z m -105.72456,45.30682 90.61363,0 0,15.11093 a 15.104157,15.104157 0 0 0 15.11093,15.11093 l -120.83549,0 a 15.104157,15.104157 0 0 0 15.11093,-15.11093 l 0,-15.11093 z"
     id="path19"
     inkscape:connector-curvature="0" />
  <path
     sodipodi:type="arc"
     style="color:#000000;fill:none;stroke:#930093;stroke-width:26.05776978;stroke-linecap:round;stroke-linejoin:miter;stroke-miterlimit:4;stroke-opacity:1;stroke-dasharray:none;stroke-dashoffset:0;marker:none;visibility:visible;display:inline;overflow:visible;enable-background:accumulate"
     id="path2987"
     sodipodi:cx="252.52119"
     sodipodi:cy="231.63135"
     sodipodi:rx="284.15234"
     sodipodi:ry="284.15234"
     d="m 536.67354,231.63135 a 284.15234,284.15234 0 1 1 -568.304689,0 284.15234,284.15234 0 1 1 568.304689,0 z"
     transform="matrix(0.97859488,0,0,0.97859488,42.884055,63.326748)" />
</svg>

<svg width="580" height="580" viewBox="0 0 580 580" fill="none" xmlns="http://www.w3.org/2000/svg">
<g clip-path="url(#clip0)">
<path opacity="0.288" d="M118.594 96.4375V96.4688C117.089 96.4744 115.203 96.487 115.594 96.4688C115.051 96.4976 114.509 96.5393 113.969 96.5938C116.337 96.3707 94.3415 102.657 96.4688 101.594C98.5961 100.53 80.3694 114.354 81.9688 112.594C83.5682 110.834 71.5508 130.282 72.4063 128.063C73.259 125.851 69.1254 148.111 69.0938 145.906C69.0937 145.899 69.0938 145.977 69.0938 145.969V221.438V251.625V281.844V387.562C69.0938 449.824 126.558 497.5 194.125 497.5H405.531C473.098 497.5 530.563 449.824 530.563 387.562V357.438C530.563 357.446 530.563 357.368 530.563 357.375C530.53 359.731 525.851 336.139 526.813 338.469C527.777 340.805 514.308 320.586 516.094 322.375C517.77 324.055 501.243 312.964 501 312.312C501.014 302.733 501 249.379 501 247.438C501 231.171 492.895 219.611 484.875 211.938C486.475 206.01 487.375 199.683 487.375 192.844C487.375 177.788 481.557 161.966 470.625 151.281C459.693 140.596 445.117 135.688 431.563 135.688C427.379 135.688 423.117 136.322 418.875 137.281C416.944 134.436 414.765 131.767 412.313 129.375C401.372 118.704 386.805 113.813 373.25 113.813C359.697 113.813 345.081 118.705 334.156 129.406C331.722 131.791 329.603 134.485 327.688 137.313C323.431 136.346 319.164 135.688 314.969 135.688C301.414 135.688 286.855 140.56 275.906 151.219C266.357 160.515 260.704 173.774 259.406 187.031H248.781V187.062C247.277 187.068 245.39 187.081 245.781 187.062C245.207 187.09 244.634 187.131 244.063 187.187C244.556 187.14 244.285 187.38 243.625 187.75V145.906C243.625 145.875 243.625 145.844 243.625 145.813C243.632 148.334 238.843 124.579 239.813 126.906C240.782 129.234 227.309 109.125 229.094 110.906C230.878 112.687 210.733 99.2231 213.063 100.188C215.392 101.152 191.635 96.4358 194.156 96.4375C194.146 96.4375 194.135 96.4375 194.125 96.4375H118.594H118.594ZM218.719 197.281C218.724 197.326 218.666 197.489 218.625 197.594C218.308 197.635 218.19 197.592 218.469 197.375C218.648 197.236 218.71 197.2 218.719 197.281L218.719 197.281ZM241.219 322.969C244.362 322.969 250.329 324.598 254.625 328.906C258.921 333.215 260.531 339.146 260.531 342.25C260.531 345.354 258.91 351.309 254.594 355.625C250.277 359.941 244.323 361.562 241.219 361.562C238.115 361.562 232.184 359.952 227.875 355.656C223.567 351.36 221.938 345.393 221.938 342.25C221.938 339.107 223.556 333.163 227.844 328.875C232.132 324.587 238.075 322.969 241.219 322.969ZM362.063 322.969C365.206 322.969 371.15 324.587 375.438 328.875C379.726 333.163 381.344 339.107 381.344 342.25C381.344 345.393 379.715 351.36 375.406 355.656C371.098 359.952 365.166 361.562 362.063 361.562C358.959 361.562 353.004 359.941 348.688 355.625C344.371 351.309 342.75 345.354 342.75 342.25C342.75 339.146 344.361 333.215 348.656 328.906C352.952 324.598 358.919 322.969 362.063 322.969Z" fill="#C26CC2"/>
<path d="M117.188 130.83C113.437 131.184 109.954 132.928 107.422 135.719C104.89 138.51 103.494 142.147 103.505 145.915V221.443V251.639V281.835V387.56C103.505 427.833 142.099 463.088 194.119 463.088H405.542C457.562 463.088 496.156 427.833 496.156 387.56V357.364C496.158 353.36 494.57 349.52 491.741 346.686C488.913 343.853 485.075 342.258 481.071 342.253H465.96C463.975 342.252 462.01 342.642 460.176 343.401C458.342 344.16 456.676 345.273 455.273 346.677C453.87 348.08 452.757 349.746 451.997 351.58C451.238 353.414 450.848 355.379 450.849 357.364V387.56C450.849 390.077 449.128 394.369 445.838 397.66C442.548 400.95 438.281 402.671 435.764 402.671H377.164C381.168 402.666 385.005 401.071 387.834 398.238C390.663 395.404 392.251 391.563 392.249 387.56V372.449C401.31 372.449 407.36 366.425 407.36 357.364V312.057C407.36 303.093 401.434 297.1 392.534 296.972C392.442 295.174 392.029 293.406 391.314 291.753L368.648 231.336C367.583 228.438 365.655 225.937 363.125 224.168C360.595 222.4 357.584 221.449 354.497 221.443H248.773C248.306 221.422 247.838 221.422 247.371 221.443C244.528 221.718 241.821 222.794 239.565 224.544C237.309 226.295 235.595 228.65 234.623 231.336L211.956 291.753C211.254 293.4 210.849 295.158 210.762 296.946C201.847 297.062 195.911 303.084 195.911 312.057V357.364C195.911 366.425 201.96 372.449 211.022 372.449V387.56C211.021 389.544 211.411 391.51 212.17 393.344C212.929 395.177 214.042 396.843 215.445 398.247C216.849 399.65 218.515 400.763 220.349 401.522C222.182 402.281 224.148 402.672 226.132 402.671H179.008C176.491 402.671 172.225 400.95 168.934 397.66C165.644 394.369 163.897 390.077 163.897 387.56V287.054L206.374 230.401C208.581 227.408 209.556 223.581 209.204 219.886V145.915C209.199 141.915 207.608 138.082 204.78 135.254C201.952 132.426 198.118 130.835 194.119 130.83H118.59C118.123 130.808 117.655 130.808 117.188 130.83V130.83ZM373.243 148.225C361.711 148.225 351.875 156.05 351.875 170.97C351.875 180.71 356.391 190.588 362.364 196.7C364.696 202.812 360.512 205.077 359.638 205.398C359.086 205.598 358.546 205.806 358.003 206.021C360.735 206.45 363.79 206.945 363.74 206.93C363.661 206.904 372.248 211.132 372.179 211.084C372.11 211.036 379.033 217.641 378.981 217.575C378.931 217.509 383.39 225.576 383.473 225.701H383.499L383.525 225.805L392.95 250.912C394.322 253.177 395.371 255.835 395.962 258.883L405.309 283.808C408.72 285.295 411.904 287.299 414.552 289.988C420.305 295.832 423.224 304.038 423.224 312.031V357.338C423.224 365.414 420.239 373.708 414.37 379.563C412.527 381.401 410.401 382.845 408.165 384.107C412.881 395.629 428.548 393.628 430.571 379.797C430.414 362.922 433.817 319.664 433.817 319.664L435.764 358.428C436.976 334.228 447.373 329.881 456.561 328.492L456.743 317.172C457.325 323.67 466.587 321.962 466.609 315.484C466.617 313.393 466.609 249.56 466.609 247.433C466.609 239.347 457.149 231.455 444.488 227.259C443.912 227.07 440.268 225.419 442.541 218.484H442.515C448.459 212.371 452.978 202.52 452.978 192.831C452.978 177.912 443.083 170.087 431.558 170.087C420.033 170.087 410.164 177.912 410.164 192.831C410.164 202.571 414.679 212.449 420.653 218.561C422.977 224.674 418.794 226.939 417.927 227.259C414.911 228.345 412.029 229.668 409.385 231.154V225.572C409.385 217.485 398.868 209.594 386.199 205.398C385.624 205.208 381.953 203.557 384.226 196.622H384.2C390.144 190.51 394.689 180.659 394.689 170.97C394.689 156.05 384.768 148.225 373.243 148.225H373.243ZM133.701 161.026H179.008V206.332H133.701V161.026V161.026ZM314.955 170.087C303.43 170.087 293.508 177.912 293.508 192.831C293.508 197.136 294.406 201.447 295.923 205.476H333.96C335.463 201.451 336.349 197.139 336.349 192.831C336.349 177.912 326.479 170.087 314.955 170.087ZM259.158 251.639H344.112L361.04 296.946H242.23L259.158 251.639ZM241.217 327.142C250.279 327.142 256.328 333.191 256.328 342.253C256.328 351.315 250.279 357.364 241.217 357.364C232.156 357.364 226.132 351.315 226.132 342.253C226.132 333.191 232.156 327.142 241.217 327.142V327.142ZM362.053 327.142C371.114 327.142 377.164 333.191 377.164 342.253C377.164 351.315 371.114 357.364 362.053 357.364C352.991 357.364 346.942 351.315 346.942 342.253C346.942 333.191 352.991 327.142 362.053 327.142ZM256.328 372.449H346.942V387.56C346.941 389.544 347.331 391.51 348.09 393.344C348.849 395.177 349.963 396.843 351.366 398.247C352.769 399.65 354.435 400.763 356.269 401.522C358.103 402.281 360.068 402.672 362.053 402.671H241.217C243.202 402.672 245.167 402.281 247.001 401.522C248.835 400.763 250.501 399.65 251.904 398.247C253.308 396.843 254.421 395.177 255.18 393.344C255.939 391.51 256.329 389.544 256.328 387.56V372.449Z" fill="#930093"/>
<path d="M568.07 290C568.07 363.748 538.774 434.477 486.625 486.625C434.477 538.773 363.749 568.07 290 568.07C216.251 568.07 145.523 538.773 93.375 486.625C41.2268 434.477 11.9302 363.748 11.9302 290C11.9302 216.251 41.2268 145.523 93.375 93.3745C145.523 41.2263 216.251 11.9297 290 11.9297C363.749 11.9297 434.477 41.2263 486.625 93.3745C538.774 145.523 568.07 216.251 568.07 290V290Z" stroke="#930093" stroke-width="25.5" stroke-linecap="round"/>
</g>
<defs>
<clipPath id="clip0">
<path d="M0 0H580V580H0V0Z" fill="white"/>
</clipPath>
</defs>
</svg>
